X:66
T:Vanha Haamarssi Pohjanmaalta (harmony)
M:4/4
L:1/8
Q:1/4=100
R:march
K:D
|: "A7" A | "D" A4 "A" cB cA | "D" F2 F>F FG AG |
F2 F>A "A" B>A c>B | "D" A2 A>A F2 B/2A/2G/2F/2 | !
"A" E2 G>G AB GE | "D" F2 A2 F2 D2 |
"Em" E2 G2 "A" A2 A2 | "D" [D2F2] [DF]>[DF] "fine" [D3F3] :| !
|: "A7" A | "D" d>c de f2 f2 | "A" e>d ef g2 f2 |
e2 f>e "D" d2 B>A | "A" G2 E>G BA GG | !
"D" FG AG F2 F2 | "A" F>G AB d2 =c2 |
"Em" B2 G2 "A" F2 A2 | "D" F2 "D.C. al fine" [FA]>[FA] [F3A3] :||

